svg/contact/comment_2_fill.svg

<?xml version="1.0" encoding="UTF-8"?>
<svg width="24px" height="24px" viewBox="0 0 24 24" version="1.1" xmlns="http://www.w3.org/2000/svg" xmlns:xlink="http://www.w3.org/1999/xlink">
    <title>comment_2_fill</title>
    <g id="Icon" stroke="none" stroke-width="1" fill="none" fill-rule="evenodd">
        <g id="Contact" transform="translate(-192.000000, -144.000000)" fill-rule="nonzero">
            <g id="comment_2_fill" transform="translate(192.000000, 144.000000)">
                <path d="M24,0 L24,24 L0,24 L0,0 L24,0 Z M12.5935,23.2578 L12.5819,23.2595 L12.5109,23.295 L12.4919,23.2987 L12.4767,23.295 L12.4057,23.2595 C12.3958,23.2564 12.387,23.259 12.3821,23.2649 L12.378,23.2758 L12.3609,23.7031 L12.3659,23.7235 L12.3769,23.7357 L12.4805,23.8097 L12.4953,23.8136 L12.5071,23.8097 L12.6107,23.7357 L12.6233,23.7197 L12.6267,23.7031 L12.6096,23.2758 C12.6076,23.2657 12.601,23.2593 12.5935,23.2578 Z M12.8584,23.1453 L12.8445,23.1473 L12.6598,23.2397 L12.6499,23.2499 L12.6472,23.2611 L12.6651,23.6906 L12.6699,23.7034 L12.6784,23.7105 L12.8793,23.8032 C12.8914,23.8069 12.9022,23.803 12.9078,23.7952 L12.9118,23.7812 L12.8777,23.1665 C12.8753,23.1546 12.8674,23.147 12.8584,23.1453 Z M12.143,23.1473 C12.1332,23.1424 12.1222,23.1453 12.1156,23.1526 L12.1099,23.1665 L12.0758,23.7812 C12.0751,23.7927 12.0828,23.8019 12.0926,23.8046 L12.1083,23.8032 L12.3092,23.7105 L12.3186,23.7024 L12.3225,23.6906 L12.3404,23.2611 L12.3372,23.2485 L12.3278,23.2397 L12.143,23.1473 Z" id="MingCute"></path>
                <path d="M16.5,11 C19.5376,11 22,13.4624 22,16.5 C22,17.4586 21.754,18.3622 21.3213,19.1484 L21.7068,20.459 C21.9312,21.2222 21.2222,21.9312 20.459,21.7068 L19.1484,21.3213 C18.3622,21.754 17.4586,22 16.5,22 C13.4624,22 11,19.5376 11,16.5 C11,13.4624 13.4624,11 16.5,11 Z M11,3 C15.1825,3 18.6986,5.85296 19.7084,9.71896 C18.7357,9.25792 17.648,9 16.5,9 C12.3579,9 9,12.3579 9,16.5 C9,18.182 9.55369,19.7347 10.4887,20.9857 C8.99774,20.9021 7.60187,20.455 6.39052,19.7314 L3.74127,20.5106 C2.97559,20.7358 2.26419,20.0244 2.48939,19.2587 L3.26858,16.6095 C2.46288,15.2606 2,13.683 2,12 C2,7.02944 6.02944,3 11,3 Z" id="形状" fill="#09244B"></path>
            </g>
        </g>
    </g>
</svg>

<svg xmlns="http://www.w3.org/2000/svg" width="24" height="24"><g fill="none" fill-rule="nonzero"><path d="M24 0v24H0V0h24ZM12.594 23.258l-.012.002-.071.035-.02.004-.014-.004-.071-.036c-.01-.003-.019 0-.024.006l-.004.01-.017.428.005.02.01.013.104.074.015.004.012-.004.104-.074.012-.016.004-.017-.017-.427c-.002-.01-.009-.017-.016-.018Zm.264-.113-.014.002-.184.093-.01.01-.003.011.018.43.005.012.008.008.201.092c.012.004.023 0 .029-.008l.004-.014-.034-.614c-.003-.012-.01-.02-.02-.022Zm-.715.002a.023.023 0 0 0-.027.006l-.006.014-.034.614c0 .012.007.02.017.024l.015-.002.201-.093.01-.008.003-.011.018-.43-.003-.012-.01-.01-.184-.092Z"/><path fill="#09244B" d="M16.5 11a5.5 5.5 0 0 1 4.821 8.148l.386 1.311a1.005 1.005 0 0 1-1.248 1.248l-1.31-.386A5.5 5.5 0 1 1 16.5 11ZM11 3a9.004 9.004 0 0 1 8.708 6.719 7.5 7.5 0 0 0-9.22 11.267 8.953 8.953 0 0 1-4.097-1.255l-2.65.78a1.008 1.008 0 0 1-1.252-1.252l.78-2.65A9 9 0 0 1 11 3Z"/></g></svg>
